images/icons/coffee.svg

<svg width="79" height="80" viewBox="0 0 79 80" fill="none" xmlns="http://www.w3.org/2000/svg">
<g id="coffee-cup_924412 1" clip-path="url(#clip0_26_740)">
<g id="Group">
<g id="Group_2">
<path id="Vector" d="M74.0225 66.7076H62.8483C62.2091 66.7076 61.6911 67.2257 61.6911 67.8648C61.6911 68.5039 62.2091 69.0221 62.8483 69.0221H72.8653V69.6749L56.0151 72.8749H22.2382L5.38807 69.6749V69.0221H9.98921C9.99106 69.0221 9.99291 69.0224 9.99461 69.0224C9.996 69.0224 9.99754 69.0221 9.99893 69.0221H14.1683C14.1697 69.0221 14.171 69.0224 14.1724 69.0224C14.1745 69.0224 14.1768 69.0221 14.179 69.0221H28.0529C28.0537 69.0221 28.0545 69.0222 28.0554 69.0222C28.0562 69.0222 28.0568 69.0221 28.0576 69.0221H32.192C32.1932 69.0221 32.1944 69.0224 32.1957 69.0224C32.1969 69.0224 32.1983 69.0221 32.1995 69.0221H46.0539C46.0552 69.0221 46.0565 69.0224 46.0577 69.0224C46.059 69.0224 46.0602 69.0221 46.0613 69.0221H58.551C59.1903 69.0221 59.7082 68.5039 59.7082 67.8648C59.7082 67.2257 59.1903 66.7076 58.551 66.7076H51.0867C52.4688 65.8294 53.7585 64.8008 54.9181 63.642C56.5917 61.9676 57.9658 60.0738 59.0159 58.0262C60.4793 58.6223 62.0287 58.9249 63.6351 58.9249C70.4126 58.9249 75.9264 53.4103 75.9264 46.632C75.9264 39.8545 70.4126 34.3407 63.6351 34.3407C62.9006 34.3407 62.173 34.4072 61.458 34.5354V33.8733C61.458 32.3921 60.2529 31.187 58.7718 31.187H53.2987C52.6595 31.187 52.1415 31.7051 52.1415 32.3442C52.1415 32.9833 52.6595 33.5015 53.2987 33.5015H58.7718C58.9767 33.5015 59.1435 33.6683 59.1435 33.8733V35.8406H19.108V33.8733C19.108 33.6683 19.2748 33.5015 19.4799 33.5015H49C49.6393 33.5015 50.1572 32.9833 50.1572 32.3442C50.1572 31.7051 49.6393 31.187 49 31.187H19.4799C17.9986 31.187 16.7936 32.3921 16.7936 33.8733V47.8496C16.7936 49.595 16.9977 51.3254 17.3955 53.0062C15.512 52.4445 13.2676 52.8858 11.2197 54.287C10.6922 54.6479 10.557 55.368 10.9179 55.8955C11.279 56.4229 11.9992 56.5579 12.5266 56.1972C13.8687 55.279 15.2771 54.9185 16.4418 55.1518L12.2267 61.4583C11.8715 61.9897 12.0144 62.7084 12.5456 63.0634C12.7431 63.1955 12.9667 63.2588 13.1876 63.2588C13.5612 63.2588 13.9278 63.0782 14.1508 62.7445L18.3671 56.4359C18.8044 57.085 19.044 57.9344 19.0552 58.9244C19.0552 58.9249 19.0552 58.9252 19.0552 58.9256C19.0552 58.9278 19.0554 58.93 19.0554 58.9321C19.071 60.4609 18.5368 62.1145 17.5516 63.5883C16.99 64.4288 16.3259 65.1495 15.5738 65.7334C15.0525 66.1417 14.5047 66.4683 13.9435 66.7076H10.2878C10.246 66.6826 10.2043 66.6575 10.1628 66.6294C8.23608 65.3425 8.11419 62.0145 9.88521 59.0528C10.2132 58.5042 10.0346 57.7936 9.48604 57.4655C8.93783 57.1378 8.22698 57.3162 7.89894 57.8648C6.76995 59.7527 6.21849 61.856 6.34625 63.7877C6.41877 64.8837 6.70561 65.8713 7.17776 66.7075H4.23084C3.59158 66.7075 3.07361 67.2256 3.07361 67.8647V70.6328C3.07361 71.1887 3.46892 71.666 4.01498 71.7696L21.0324 75.0014V78.4262C21.0324 79.0653 21.5504 79.5834 22.1896 79.5834H56.0622C56.7014 79.5834 57.2194 79.0653 57.2194 78.4262V75.0017L74.2384 71.7696C74.7845 71.666 75.1798 71.1886 75.1798 70.6328V67.8647C75.1798 67.2257 74.6616 66.7076 74.0225 66.7076ZM61.4578 47.8493V42.3742C62.1284 42.0299 62.8701 41.8473 63.6351 41.8473C66.2734 41.8473 68.4199 43.9937 68.4199 46.632C68.4199 49.2703 66.2734 51.4168 63.6351 51.4168C62.7943 51.4168 61.985 51.1984 61.2662 50.7868C61.3924 49.8206 61.4578 48.84 61.4578 47.8493ZM60.8267 53.1532C61.7065 53.5331 62.657 53.7314 63.6351 53.7314C67.5496 53.7314 70.7343 50.5467 70.7343 46.6322C70.7343 42.7176 67.5496 39.5329 63.6351 39.5329C62.8883 39.5329 62.1557 39.6497 61.458 39.8746V37.0097C61.458 37.0057 61.4586 37.0019 61.4586 36.9978C61.4586 36.9938 61.458 36.99 61.458 36.986V36.8951C62.1683 36.7365 62.8976 36.6552 63.6353 36.6552C69.1364 36.6552 73.6121 41.1307 73.6121 46.632C73.6121 52.1341 69.1364 56.6104 63.6353 56.6104C62.3594 56.6104 61.1295 56.3726 59.9656 55.9102C60.3123 55.013 60.5991 54.0921 60.8267 53.1532ZM19.108 38.1551H59.1435V41.7172C59.1435 41.7184 59.1435 41.7198 59.1435 41.721V47.8494C59.1435 53.1964 57.0616 58.2239 53.2816 62.0054C51.1873 64.0983 48.6223 65.7203 45.8548 66.7076H32.3999C32.0267 66.5748 31.6553 66.4319 31.2885 66.2756C32.1376 64.9406 32.4612 63.4553 32.1818 62.0398C32.1815 62.038 32.1813 62.0363 32.181 62.0344C32.1805 62.0323 32.1798 62.0301 32.1795 62.0279C31.8105 60.1864 30.5093 58.6712 28.5146 57.7612C26.6461 56.9087 24.3623 56.688 22.0838 57.1404C21.8766 57.1816 21.6712 57.2287 21.4675 57.2804C19.9229 54.3928 19.108 51.152 19.108 47.8496V38.1551ZM19.4762 64.8743C20.5475 63.2714 21.194 61.474 21.3384 59.7323C21.7266 59.6015 22.1259 59.4917 22.535 59.4103C25.4794 58.8258 28.3185 59.7118 29.4506 61.3973L22.0134 62.8756C21.3865 63.0003 20.9793 63.6093 21.1039 64.2362C21.2134 64.7869 21.6968 65.168 22.2378 65.168C22.3125 65.168 22.3885 65.1608 22.4646 65.1455L29.9064 63.6661C29.7579 64.4274 29.3336 65.1906 28.6539 65.8917C28.6521 65.8935 28.6504 65.8955 28.6487 65.8974C28.3652 66.1882 28.0448 66.459 27.6957 66.7073H17.9656C18.5203 66.1603 19.0262 65.5476 19.4762 64.8743ZM54.905 77.2693H23.3467V75.1893H54.905V77.2693Z" fill="black"/>
</g>
</g>
<g id="Group_3">
<g id="Group_4">
<g id="Group_5">
<path id="Vector_2" d="M42.1381 23.7202C42.1171 23.7335 42.1 23.7441 42.0876 23.752C42.0992 23.7446 42.1162 23.7339 42.1381 23.7202Z" fill="black"/>
<path id="Vector_3" d="M42.0881 23.752C42.0566 23.7718 42.0605 23.7693 42.0881 23.752V23.752Z" fill="black"/>
<path id="Vector_4" d="M44.6436 13.2155C46.202 11.7342 47.0995 9.68163 47.0995 7.47827C47.0995 4.73564 45.7112 2.22476 43.3856 0.761405C42.8448 0.421025 42.1299 0.583654 41.7898 1.12462C41.4495 1.66559 41.6121 2.37998 42.1531 2.72036C43.8013 3.75739 44.7852 5.53598 44.7852 7.47811C44.7852 9.42025 43.8013 11.1988 42.1531 12.2359C41.4456 12.6796 41.4456 13.7495 42.1531 14.1948C43.8013 15.2319 44.7852 17.0104 44.7852 18.9526C44.7854 20.8949 43.8014 22.6736 42.1532 23.7106C42.1472 23.7143 42.1433 23.7168 42.1381 23.7202C42.143 23.7171 42.1478 23.7142 42.1532 23.7108C41.6123 24.0512 41.4496 24.7656 41.79 25.3065C42.0099 25.6562 42.3859 25.8477 42.7704 25.8477C42.981 25.8477 43.1943 25.7901 43.3856 25.6698C45.7112 24.2066 47.0995 21.6955 47.0995 18.953C47.0995 16.7494 46.2018 14.6968 44.6436 13.2155ZM42.7568 23.3308C42.7841 23.3136 42.7875 23.3115 42.7568 23.3308V23.3308ZM42.6061 23.4258C42.6314 23.4098 42.6548 23.3951 42.676 23.3818C42.6558 23.3945 42.6331 23.4088 42.6061 23.4258Z" fill="black"/>
</g>
</g>
</g>
<g id="Group_6">
<g id="Group_7">
<path id="Vector_5" d="M51.5297 12.2361C50.9889 11.8957 50.2742 12.0581 49.934 12.5993C49.5936 13.1401 49.7562 13.8546 50.2972 14.195C51.9452 15.232 52.9292 17.0108 52.9292 18.9529C52.9293 20.8947 51.9454 22.6735 50.2973 23.7105C49.7564 24.0509 49.5937 24.7653 49.9341 25.3063C50.154 25.6559 50.53 25.8474 50.9145 25.8474C51.1251 25.8474 51.3384 25.7898 51.5297 25.6695C53.8551 24.2063 55.2435 21.6952 55.2435 18.9528C55.2435 16.2103 53.8551 13.6993 51.5297 12.2361Z" fill="black"/>
</g>
</g>
<g id="Group_8">
<g id="Group_9">
<path id="Vector_6" d="M34.5747 12.236C34.0339 11.8956 33.3191 12.0583 32.979 12.5992C32.6386 13.1402 32.8012 13.8546 33.3422 14.195C34.9904 15.232 35.9744 17.0106 35.9744 18.9527C35.9745 20.8949 34.9906 22.6736 33.3424 23.7106C32.8014 24.051 32.6388 24.7654 32.9792 25.3064C33.199 25.656 33.575 25.8475 33.9596 25.8475C34.1702 25.8475 34.3834 25.7899 34.5747 25.6696C36.9003 24.2064 38.2887 21.6954 38.2887 18.9529C38.2887 16.2102 36.9003 13.6994 34.5747 12.236Z" fill="black"/>
</g>
</g>
</g>
<defs>
<clipPath id="clip0_26_740">
<rect width="79" height="79" fill="white" transform="translate(0 0.583496)"/>
</clipPath>
</defs>
</svg>

<svg xmlns="http://www.w3.org/2000/svg" width="79" height="80" fill="none"><g clip-path="url(#a)"><path fill="#000" d="M74.022 66.708H62.848a1.157 1.157 0 1 0 0 2.314h10.017v.653l-16.85 3.2H22.238l-16.85-3.2v-.653h53.163a1.157 1.157 0 1 0 0-2.314h-7.464a22.396 22.396 0 0 0 7.93-8.681c1.462.595 3.012.898 4.618.898 6.778 0 12.291-5.515 12.291-12.293 0-6.777-5.513-12.291-12.29-12.291-.735 0-1.463.066-2.178.194v-.662a2.69 2.69 0 0 0-2.686-2.686h-5.473a1.157 1.157 0 1 0 0 2.314h5.473c.205 0 .372.167.372.372v1.968H19.108v-1.968c0-.205.167-.371.372-.371H49a1.157 1.157 0 1 0 0-2.315H19.48a2.69 2.69 0 0 0-2.686 2.686V47.85c0 1.745.204 3.475.601 5.156-1.883-.562-4.127-.12-6.175 1.281a1.157 1.157 0 1 0 1.307 1.91c1.342-.918 2.75-1.279 3.915-1.045l-4.215 6.306a1.157 1.157 0 1 0 1.924 1.287l4.216-6.31c.437.65.677 1.5.688 2.49v.007c.016 1.529-.518 3.182-1.503 4.656a9.094 9.094 0 0 1-1.978 2.145 7.291 7.291 0 0 1-1.63.975h-3.656a2.6 2.6 0 0 1-.125-.079c-1.927-1.287-2.049-4.615-.278-7.576A1.157 1.157 0 0 0 7.9 57.865c-1.13 1.888-1.68 3.991-1.553 5.923.073 1.096.36 2.083.832 2.92H4.23c-.64 0-1.157.518-1.157 1.157v2.768c0 .556.395 1.033.941 1.137L21.032 75v3.425c0 .64.518 1.157 1.158 1.157h33.872c.64 0 1.157-.518 1.157-1.157v-3.424l17.02-3.232c.545-.104.94-.581.94-1.137v-2.768c0-.64-.517-1.157-1.157-1.157ZM61.458 47.849v-5.475a4.754 4.754 0 0 1 2.177-.527 4.79 4.79 0 0 1 4.785 4.785 4.79 4.79 0 0 1-4.785 4.785c-.84 0-1.65-.219-2.369-.63.126-.966.192-1.947.192-2.938Zm-.631 5.304c.88.38 1.83.578 2.808.578 3.915 0 7.1-3.184 7.1-7.099 0-3.914-3.185-7.1-7.1-7.1-.747 0-1.48.118-2.177.343v-2.979c.71-.16 1.44-.24 2.177-.24 5.501 0 9.977 4.475 9.977 9.976 0 5.502-4.476 9.978-9.977 9.978a9.88 9.88 0 0 1-3.67-.7c.347-.897.634-1.818.862-2.757ZM19.108 38.155h40.035V47.85a19.893 19.893 0 0 1-5.861 14.156 20.143 20.143 0 0 1-7.427 4.703H32.4a19.571 19.571 0 0 1-1.111-.432c.849-1.335 1.172-2.82.893-4.236l-.001-.006-.002-.006c-.369-1.842-1.67-3.357-3.664-4.267-1.869-.852-4.153-1.073-6.431-.62a12.09 12.09 0 0 0-.616.14 20 20 0 0 1-2.36-9.431v-9.695Zm.368 26.72c1.072-1.604 1.718-3.401 1.862-5.143.389-.13.788-.24 1.197-.322 2.944-.584 5.784.302 6.916 1.987l-7.438 1.479a1.157 1.157 0 1 0 .452 2.27l7.441-1.48c-.148.761-.572 1.525-1.252 2.226l-.005.005c-.284.291-.604.562-.953.81h-9.73c.554-.547 1.06-1.16 1.51-1.833Zm35.429 12.394H23.347v-2.08h31.558v2.08Z"/><g fill="#000"><path d="M42.138 23.72c-.02.014-.038.024-.05.032l.05-.032ZM42.088 23.752c-.031.02-.028.017 0 0Z"/><path d="M44.644 13.216A7.884 7.884 0 0 0 47.1 7.478 7.896 7.896 0 0 0 43.386.761a1.157 1.157 0 1 0-1.233 1.96 5.593 5.593 0 0 1 2.632 4.757c0 1.942-.984 3.72-2.632 4.758-.707.444-.707 1.513 0 1.959a5.594 5.594 0 0 1 2.632 4.758 5.593 5.593 0 0 1-2.647 4.767l.015-.01a1.157 1.157 0 0 0 1.233 1.96 7.896 7.896 0 0 0 3.713-6.717 7.885 7.885 0 0 0-2.455-5.737ZM42.757 23.33c.027-.017.03-.02 0 0Zm-.15.095.069-.044-.07.044Z"/></g><path fill="#000" d="M51.53 12.236a1.157 1.157 0 1 0-1.233 1.959 5.594 5.594 0 0 1 2.632 4.758c0 1.942-.984 3.72-2.632 4.758a1.157 1.157 0 0 0 1.233 1.959 7.896 7.896 0 0 0 3.713-6.717 7.896 7.896 0 0 0-3.713-6.717ZM34.575 12.236a1.157 1.157 0 1 0-1.233 1.959 5.593 5.593 0 0 1 2.632 4.758c0 1.942-.983 3.72-2.632 4.758a1.157 1.157 0 0 0 1.233 1.959 7.896 7.896 0 0 0 3.714-6.717 7.896 7.896 0 0 0-3.714-6.717Z"/></g><defs><clipPath id="a"><path fill="#fff" d="M0 .583h79v79H0z"/></clipPath></defs></svg>
